!!!!SEGMENT: pl-wtm--r-1428_stefani-jozef--o-pani-swiata-gwiazdo-zbawienia.krn
!!!cenid: 18xx:2446
!!!COM: Stefani, Józef
!!!COM-rismID: pe30024097
!!!CDT: 1800/04/16-1876/03/19
!!!CNT: Polish
!!!OTL: O Pani świata, gwiazdo zbawienia
!!!PDT:
!!!AGN:
!!!SMS-siglum: PL-Wtm
!!!SMS-shelfmark: R 1428
!!!SMS-shelfwork: W
!!!SMS-variant:
!!!SMS-altvar:
!!!NIFC-rismSourceID: 1001116127
!!!NIFC-rismChildID: 1001116127
!!!NIFC-islandoraID:
!!!URL-pdf-islandora:
!!!URL-scan:
!!!ONB-nifc: UWAGA: skan 0011
!!!OMD: Andante.
!!!AIN: 1 organ 1 vox
!!!key:
**kern	**kern	**kern	**text	**text	**dynam
*part2	*part2	*part1	*part1	*part1	*part1
*staff3	*staff2	*staff1	*staff1	*staff1	*
*Iorgan	*Iorgan	*Ivox	*	*	*
*I"Organo	*I"Organo	*I"Głos	*	*	*
*>[A,A,B]	*>[A,A,B]	*>[A,A,B]	*>[A,A,B]	*>[A,A,B]	*>[A,A,B]
*>A	*>A	*>A	*>A	*>A	*>A
*clefF4	*clefG2	*clefG2	*	*	*
*k[b-e-a-]	*k[b-e-a-]	*k[b-e-a-]	*	*	*
*E-:	*E-:	*E-:	*	*	*
*M3/4	*M3/4	*M3/4	*	*	*
*all\right	*all\right	*all\right	*	*	*
!	!LO:TX:b:t=[segno]	!LO:TX:a:t=[segno]	!	!	!
!	!	!LO:TX:a:i:t=(&colon;Śpiew do Matki Bożej Ostrobramskiej&colon;)	!	!	!
4B-\	4b-\	4b-\	1.) O	2.) Ludz-	.
=1	=1	=1	=1	=1	=1
*2\right	*2\right	*2\right	*	*	*
2.B- 2.E-\	2ee- 2g\	2ee-\	Pa-	-Kie	.
.	4g 4e-/	4g/	-ni	ra-	.
=2	=2	=2	=2	=2	=2
*	*^	*	*	*	*
*	*2\right	*	*	*	*	*
2A-\	2cc/	2.e-\	2cc\	świa-	-doś-	.
4G\	4b-/	.	4b-\	-ta!,	-ci	.
*	*v	*v	*	*	*	*
=3	=3	=3	=3	=3	=3
8F\L	4a- 4c/	4a-/	gwiaz-	go-	.
8E-\J	.	.	.	.	.
2D\	4f 4B-/	4f/	-do	-ry-	.
.	4b- 4f 4B-/	4b-/	zba-	-czą	.
=4	=4	=4	=4	=4	=4
4E-\	4g 4e- [4B-/	4g/	-wie-	ztru-	.
4BB-/	4f 4d 4B-/]	4f/	-nia	-te	.
4r	4r	4r	.	.	.
!!LO:LB:g=original
=5	=5	=5	=5	=5	=5
2C\	2e- 2G</	4e-/	Ró-	We-	.
.	.	4e-/	-żo	-sel-	.
4A- 4AA-\	4f [4c/	4f/	bez	-ne	.
=6	=6	=6	=6	=6	=6
*	*^	*	*	*	*
2G 2GG\	2g 2d/	4c\]	2g/	cier-	pieś-	.
.	.	8Bn\L	.	.	.	.
.	.	8An\J	.	.	.	.
4G 4GG\	4g 4d/	4B\	4g/	-nia,	-ni	.
=7	=7	=7	=7	=7	=7	=7
4F\	4a- 4d/	2B-X\	4a-/	świat-	na	.
4E-\	4g 4e-/	.	4g/	-ło	smut-	.
4A-\	4cc/	4a- 4e-\	4cc\	bez	-ną	.
*	*v	*v	*	*	*	*
=8	=8	=8	=8	=8	=8
4.G\	4.b- 4.e-/	(4.b-/	cie-	nu-	.
8F\	8a- 8d/	8a-/)	.	.	.
4E-\	4g 4e-/	4g/	-nia.	-tę	.
=9	=9	=9	=9	=9	=9
*	*^	*	*	*	*
*tremolo	*	*	*	*	*	*
!LO:TX:t=P:problem=mixed beam	!	!	!	!	!	!
8BB-/L	2f/	2.d\	4f/	Przez	Ludz-	.
8B-\	.	.	.	.	.	.
8BB-/	.	.	4f/	twe	-kie	.
8B-\	.	.	.	.	.	.
8BB-/	4b-/	.	4b-/	wy-	zwy-	.
8B-\J	.	.	.	.	.	.
*	*v	*v	*	*	*	*
!!LO:LB:g=original
=10	=10	=10	=10	=10	=10
!LO:TX:t=P:problem=mixed beam	!	!	!	!	!
8BB-/L	4.dd 4.f/	(4.dd\	-gna-	-cię-	.
8B-\	.	.	.	.	.
8BB-/	.	.	.	.	.
8B-\	8cc 8e-/	8cc\)	.	.	.
8BB-/	4b- 4d/	4b-\	-nie	-stwa	.
8B-\J	.	.	.	.	.
=11	=11	=11	=11	=11	=11
*	*^	*	*	*	*
!LO:TX:t=P:problem=mixed beam	!	!	!	!	!	!
8FF/L	8b-/L	2e- 2c\	8b-/L	na	z wie-	.
8F\	8an/J	.	8an/J	.	.	.
8FF/	4g/	.	4g/	źie-	-czną	.
8F\	.	.	.	.	.	.
8FF/	4a/	4e- 4c\	4a/	-mię	prze-	.
8F\J	.	.	.	.	.	.
=12	=12	=12	=12	=12	=12	=12
8BB-\L	2b-/	2d\	2b-/	cu-	-gra-	.
8B-\	.	.	.	.	.	.
8BB-\	.	.	.	.	.	.
8B-\	.	.	.	.	.	.
8BB-\	4f/	4d\	4f/	-dzą,	-ną	.
8B-\J	.	.	.	.	.	.
*Xtremolo	*	*	*	*	*	*
=13	=13	=13	=13	=13	=13	=13
4E-\	4g/	4e-\	4g/	Spraw	I	.
4C\	4ee- 4g/	4e-\	4ee-\	niech	zna-	.
4E-\	4cc 4g/	4e-\	4cc\	mnie	-na	.
*	*v	*v	*	*	*	*
=14	=14	=14	=14	=14	=14
2F\	2b- 2f 2d/	2b-\	ludz-	mą-	.
4F\	4b- 4f 4d/	4b-\	-kie	-drość	.
=15	=15	=15	=15	=15	=15
*	*^	*	*	*	*
!	!	!	!LO:TX:a:t=P:problem=dodatkowy tekst na górze	!	!	!
2.F 2.FF\	8b-/L	2.e- 2.c\	8b-/L	szczęś-	z praw-	.
.	8an/J	.	8an/J	.	.	.
.	4g/	.	4g/	-cia	-dą	.
.	4a/	.	4a/	nie	nie-	.
*	*v	*v	*	*	*	*
!!LO:LB:g=original
=	=	=	=	=	=
8FF/L	4cc 4e-/	4cc\	łu-	-zna-	.
16GG/L	.	.	.	.	.
16AAn/JJ	.	.	.	.	.
!	!LO:TX:a:t=[segno]:problem=znak segno na kresce taktowej	!LO:TX:a:t=[segno]:problem=znak segno na kresce taktowej	!	!	!
4BB-/	4b- 4d/	4b-\	-dzą,	-ną	.
=16||	=16||	=16||	=16||	=16||	=16||
*>B	*>B	*>B	*>B	*>B	*>B
4B-\	4b-\	4b-\	3.) Niech	.	.
=17	=17	=17	=17	=17	=17
2.B- 2.E-\	2ee- 2g\	2ee-\	mi	.	.
.	4g 4e-/	4g/	za	.	.
=18	=18	=18	=18	=18	=18
*	*^	*	*	*	*
2A-\	2cc/	2.e-\	2cc\	wszy-	.	.
4G\	4b-/	.	4b-\	-stko	.	.
*	*v	*v	*	*	*	*
=19	=19	=19	=19	=19	=19
8F\L	4a- 4c/	4a-/	co	.	.
8E-\J	.	.	.	.	.
2D\	4f 4B-/	4f/	swiat	.	.
.	4b- 4f 4B-/	4b-/	dać	.	.
!!LO:PB:g=original
=20	=20	=20	=20	=20	=20
4E-\	4g 4e- 4B-/	4g/	mo-	.	.
4BB-/	4f 4d 4B-/	4f/	-że	.	.
4r	4r	4r	.	.	.
=21	=21	=21	=21	=21	=21
2C\	2e- 2G</	4e-/	Spo-	.	.
.	.	4e-/	-koj-	.	.
4A- 4AA-\	4f [4c/	4f/	-nie	.	.
=22	=22	=22	=22	=22	=22
*	*^	*	*	*	*
2G 2GG\	2g 2d/	4c\]	2g/	gra-	.	.
.	.	8Bn\L	.	.	.	.
.	.	8An\J	.	.	.	.
4G 4GG\	4g 4d/	4B\	4g/	-ią	.	.
=23	=23	=23	=23	=23	=23	=23
4F\	4a- 4d/	2B-X\	4a-/	os-	.	.
4E-\	4g 4e-/	.	4g/	-tat-	.	.
4A-\	4cc 4a- 4e-/	4ryy	4cc\	-nie	.	.
*	*v	*v	*	*	*	*
!!LO:LB:g=original
=24	=24	=24	=24	=24	=24
4.G\	4.b- 4.e-/	(4.b-/	zo-	.	.
8F\	8a- 8d/	8a-/)	.	.	.
4E-\	4g 4e-/	4g/	-rze	.	.
=25	=25	=25	=25	=25	=25
4B-\	4b-\	4b-\	I	.	<
4A-\	4cc\	4cc\	skon-	.	.
4F\	4dd 4b- 4a-\	4dd\	-mi	.	[[
=26	=26	=26	=26	=26	=26
2E-\	2ee- 2b- 2g/	2ee-\	u-	.	>
4A-\	4cc 4a-/	4cc\	-proś	.	]
=27	=27	=27	=27	=27	=27
*	*^	*	*	*	*
2B-\	8b-L 8g/	4ryy	(8b-/L	ja-	.	.
.	8gJ 8e-/	.	8g/J)	.	.	.
.	4a- 4f/	4e-\	4a-/	-ko	.	.
4B- 4BB-\	4b-/	4d\	4b-/	sen	.	.
*	*v	*v	*	*	*	*
!!LO:LB:g=original
=28	=28	=28	=28	=28	=28
2B- 2E-\	2g 2e-/	2g/	lek-	.	.
4B- 4D\	4b- 4f/	4b-/	-ki	.	.
=29	=29	=29	=29	=29	=29
2c 2C\	2ee- 2g 2e-/	4ee-\	I	.	.
.	.	4ee-\	Sa-	.	.
4c-X 4C-X\	4an 4e-/	4an/	-ma,	.	.
=30	=30	=30	=30	=30	=30
[2.B- [>2.BB-\	2b- 2g/	2b-\	Pan-	.	.
.	4g [4e-/	4g/	-no,	.	.
=31	=31	=31	=31	=31	=31
*	*^	*	*	*	*
2.B-] 2.BB-\]	2f/	4e-\]	4f/	zam-	.	.
.	.	8d\L	4f/	-knij	.	.
.	.	8c\J	.	.	.	.
.	4b-/	4d\	4b-/	po-	.	.
*	*v	*v	*	*	*	*
=32	=32	=32	=32	=32	=32
2B- 2G 2E-\	2e-/	2e-/	-wie-	.	.
4B- 4G 4E-\	4e-/	4e-/	-ki.	.	.
!!LO:LB:g=original
=33	=33	=33	=33	=33	=33
4E- 4EE-/	2ee- 2g/	2.r	.	.	.
4c 4C\	.	.	.	.	.
4A- 4AA-\	4ff 4cc 4f/	.	.	.	.
=34	=34	=34	=34	=34	=34
2G 2GG\	2gg 2bn 2g\	2.r	.	.	.
4A- 4AA-\	4ff 4cc 4f\	.	.	.	.
=35	=35	=35	=35	=35	=35
*	*^	*	*	*	*
2.B- 2.BB-\	8ee-/L	4g\	2.r	.	.	.
.	8b-/J	.	.	.	.	.
.	4cc/	4a-\	.	.	.	.
.	4dd 4a-/	4f\	.	.	.	.
*	*v	*v	*	*	*	*
=36	=36	=36	=36	=36	=36
2B- 2BB-\	2dd 2a- 2f/	2.r	.	.	.
4B- 4E-\	4ee- 4g 4e-/	.	.	.	.
==	==	==	==	==	==
*-	*-	*-	*-	*-	*-
!!!system-decoration: s1{(s2,s3)}
!!!RDF**kern: > = above
!!!RDF**kern: < = below
!!!ENC: Marta Lawrence
!!!END: 2021-06-28
!!!ENC: Tomasz Grochalski
!!!END: 2021-06-20
!!!YEC: Copyright 2022 Narodowy Instytut Fryderyka Chopina (https://polishscores.org)
!!!YEM: License CC-BY-4.0 (https://creativecommons.org/licenses/by/4.0)
